packages/kaspersky-hexa-ui-icons/src/iconsSVGs/64x42/FlagUz.svg

<svg width="64" height="42" viewBox="0 0 64 42" fill="none" xmlns="http://www.w3.org/2000/svg">
<g clip-path="url(#clip0_37941_2373)">
<rect width="64" height="42" rx="5" fill="white"/>
<rect x="0.5" y="0.5" width="63" height="41" rx="4.5" stroke="#F5F5F5"/>
<path fill-rule="evenodd" clip-rule="evenodd" d="M0 14.0001H64V0H0V14.0001Z" fill="#04AAC8"/>
<path fill-rule="evenodd" clip-rule="evenodd" d="M0 42.0001H64V28H0V42.0001Z" fill="#23C840"/>
<path fill-rule="evenodd" clip-rule="evenodd" d="M11.9 3.49967C11.9786 3.49967 12.0565 3.50226 12.1338 3.50735C11.4663 3.06044 10.6636 2.7998 9.79999 2.7998C7.48039 2.7998 5.59998 4.68022 5.59998 6.99982C5.59998 9.31943 7.48039 11.1998 9.79999 11.1998C10.6638 11.1998 11.4667 10.9391 12.1342 10.492C12.0568 10.4971 11.9787 10.4997 11.9 10.4997C9.96704 10.4997 8.40003 8.93269 8.40003 6.99969C8.40003 5.06668 9.96704 3.49967 11.9 3.49967ZM15.4 11.2C16.1732 11.2 16.8 10.5732 16.8 9.80004C16.8 9.02684 16.1732 8.40003 15.4 8.40003C14.6268 8.40003 14 9.02684 14 9.80004C14 10.5732 14.6268 11.2 15.4 11.2ZM22.3999 4.19985C22.3999 4.97305 21.7731 5.59985 20.9999 5.59985C20.2267 5.59985 19.5999 4.97305 19.5999 4.19985C19.5999 3.42664 20.2267 2.79984 20.9999 2.79984C21.7731 2.79984 22.3999 3.42664 22.3999 4.19985ZM26.6001 5.59985C27.3733 5.59985 28.0001 4.97305 28.0001 4.19985C28.0001 3.42664 27.3733 2.79984 26.6001 2.79984C25.8269 2.79984 25.2001 3.42664 25.2001 4.19985C25.2001 4.97305 25.8269 5.59985 26.6001 5.59985ZM28.0001 9.80004C28.0001 10.5732 27.3733 11.2 26.6001 11.2C25.8269 11.2 25.2001 10.5732 25.2001 9.80004C25.2001 9.02684 25.8269 8.40003 26.6001 8.40003C27.3733 8.40003 28.0001 9.02684 28.0001 9.80004ZM20.9999 11.2C21.7731 11.2 22.3999 10.5732 22.3999 9.80004C22.3999 9.02684 21.7731 8.40003 20.9999 8.40003C20.2267 8.40003 19.5999 9.02684 19.5999 9.80004C19.5999 10.5732 20.2267 11.2 20.9999 11.2Z" fill="white"/>
</g>
<defs>
<clipPath id="clip0_37941_2373">
<rect width="64" height="42" rx="5" fill="white"/>
</clipPath>
</defs>
</svg>

<svg xmlns="http://www.w3.org/2000/svg" width="64" height="42" fill="none" viewBox="0 0 64 42"><g clip-path="url(#a)"><rect width="64" height="42" fill="#fff" rx="5"/><rect width="63" height="41" x="1" y="1" stroke="#f5f5f5" rx="5"/><path fill="#04aac8" fill-rule="evenodd" d="M0 14.0001h64V0H0z" clip-rule="evenodd"/><path fill="#23c840" fill-rule="evenodd" d="M0 42.0001h64V28H0z" clip-rule="evenodd"/><path fill="#fff" fill-rule="evenodd" d="M11.9 3.4997q.1179 0 .2338.0077A4.18 4.18 0 0 0 9.8 2.7998c-2.3196 0-4.2 1.8804-4.2 4.2s1.8804 4.2 4.2 4.2a4.18 4.18 0 0 0 2.3342-.7078 3.6 3.6 0 0 1-.2342.0077c-1.933 0-3.5-1.567-3.5-3.5s1.567-3.5 3.5-3.5M15.4 11.2c.7732 0 1.4-.6268 1.4-1.4s-.6268-1.4-1.4-1.4-1.4.6268-1.4 1.4.6268 1.4 1.4 1.4m6.9999-7.0001c0 .7731-.6268 1.4-1.4 1.4s-1.4-.6269-1.4-1.4c0-.7733.6268-1.4 1.4-1.4s1.4.6267 1.4 1.4m4.2002 1.4c.7732 0 1.4-.6269 1.4-1.4 0-.7733-.6268-1.4-1.4-1.4s-1.4.6267-1.4 1.4c0 .7731.6268 1.4 1.4 1.4m1.4 4.2001c0 .7732-.6268 1.4-1.4 1.4s-1.4-.6268-1.4-1.4.6268-1.4 1.4-1.4 1.4.6268 1.4 1.4m-7.0002 1.4c.7732 0 1.4-.6268 1.4-1.4s-.6268-1.4-1.4-1.4-1.4.6268-1.4 1.4.6268 1.4 1.4 1.4" clip-rule="evenodd"/></g><defs><clipPath id="a"><rect width="64" height="42" fill="#fff" rx="5"/></clipPath></defs></svg>
